X:1
T:I Shall Be Like Him (Lincoln)
T:I Shall Be Like Him (Lincoln)
T:Cary Lincoln Eby
T:Carey D. Lincoln, 1900
T:Public Domain Courtesy of the Cyber Hymnal™
T:Public Domain Courtesy of the Cyber Hymnal™
C:Cary Lincoln Eby
Z:Public Domain
Z:Courtesy of the Cyber Hymnal™
%%score ( 1 2 ) ( 3 4 )
L:1/8
Q:1/4=105
M:9/8
K:Eb
V:1 treble 
V:2 treble 
V:3 bass 
V:4 bass 
V:1
 EE[EG] | [GB]3 [EG]3 [Ge][Bd][Ac] | [GB]3 [EG]3 [EG][EG][EA] | [EB]3 [EG]3 [EG][DF]E | %4
w: 1.~Je- sus my|Sav- ior, reign- ing in|glo- ry, Bids me to|watch, to wait and to|
w: 2.~Je- sus is|com- ing; hail the glad|morn- ing, Com- ing to|take the faith- ful ones|
w: 3.~Je- sus is|com- ing, soon I shall|see Him, Soon I shall|hear the glo- ri- ous|
 [DF]6 EE[EG] | [GB]3 [EG]3 [Ge][Bd][Ac] | [GB]3 [EG]3 [Ec][Ec][Ec] | [EB]3 [EG]3 [EG][B,E][B,F] | %8
w: pray; For He is|com- ing, won- der- ful|sto- ry, Com- ing from|Hea- ven some hap- py|
w: home; And I shall|see Him, in His a-|dorn- ing, I shall be|like Him wh- en He|
w: word, “Thou hast been|faith- ful, good and true|ser- vant, En- ter ye|in- to the~joy of thy|
 [B,E]6 ||"^Refrain" [EB][EB][EB] | [Ec]3 [EB]3 [EG][EG][EG] | [EA]3 [EG]3 [Ec][Ec][Ec] | %12
w: day.||||
w: comes.|I shall be|like Him, I shall be|like Him, And in His|
w: Lord.”||||
 [EB]3 [EG]3 [EB]2 [EG] | ([EG]3 [DF]3) [B,E][B,E][B,E] | [EG]3 [EB]3 [^Fe][Fe][Fe] | %15
w: |||
w: glo- ry I shall|share; * I shall be|like Him, won- drous- ly|
w: |||
 [Ge]3 !fermata!E3 [B,E][EG][Ec] | [EB]3 [EG]3 ([EG][B,E])[B,F] | [B,E]6 |] %18
w: |||
w: like Him, Glo- ri- ous|im- age I * shall|bear.|
w: |||
V:2
 EE x | x9 | x9 | x8 E | x6 EE x | x9 | x9 | x9 | x6 || x3 | x9 | x9 | x9 | x9 | x9 | x3 E3 x3 | %16
 x9 | x6 |] %18
V:3
 [E,G,][E,G,][E,B,] | [E,E]3 [E,B,]3 [E,B,][E,B,][E,E] | [E,E]3 [E,B,]3 [E,B,][E,B,][E,B,] | %3
 [E,G,]3 [E,B,]3 [E,B,][E,A,][E,G,] | [B,,B,]6 [E,G,][E,G,][E,B,] | %5
 [E,E]3 [E,B,]3 [E,B,][E,B,][E,E] | [E,E]3 [E,B,]3 A,A,A, | [G,B,]3 [E,B,]3 [B,,B,][B,,G,][B,,A,] | %8
 [E,G,]6 || [E,G,][E,G,][E,G,] | [E,A,]3 [E,G,]3 [E,B,][E,B,][E,B,] | %11
 [E,C]3 [E,B,]3 [E,A,][E,A,][E,A,] | [E,G,]3 [E,B,]3 [G,B,]2 [E,B,] | [B,,B,]6 [E,G,][E,G,][E,G,] | %14
 [E,B,]3 [E,G,]3 [E,C][E,C][E,C] | !fermata![E,B,]6 [E,G,][E,B,][E,A,] | %16
 [E,G,]3 [E,B,]3 (B,G,)[B,,A,] | [E,G,]6 |] %18
V:4
 x3 | x9 | x9 | x9 | x9 | x9 | x6 A,A,A, | x9 | x6 || x3 | x9 | x9 | x9 | x9 | x9 | x9 | %16
 x6 B,,2 x | x6 |] %18

